src/images/500-icon.svg

<svg width="216" height="244" viewBox="0 0 216 244" fill="none" xmlns="http://www.w3.org/2000/svg">
<path id="Union" fill-rule="evenodd" clip-rule="evenodd" d="M80.3203 14.8005C78.5093 7.25461 84.2288 3.05176e-05 91.989 3.05176e-05H127.911C135.671 3.05176e-05 141.391 7.25459 139.579 14.8005L130.447 52.8546C129.152 58.25 124.327 62.0541 118.778 62.0541H115.024V65.2418C115.024 67.1668 114.314 69.0242 113.031 70.4587L104.231 80.2941C100.891 84.0268 101.136 89.7415 104.784 93.1743C105.778 94.1105 106.929 94.785 108.149 95.1974C108.566 95.1224 108.987 95.1153 109.398 95.1716C110.234 95.0572 111.112 95.2048 111.902 95.6501C113.879 95.4812 115.813 94.6767 117.374 93.2352L118.393 92.2948C120.105 90.7149 121.078 88.4915 121.078 86.1622C121.078 83.9531 122.869 82.1622 125.078 82.1622C127.287 82.1622 129.078 83.9531 129.078 86.1622C129.078 90.7243 127.172 95.0788 123.819 98.1732L122.801 99.1136C122.157 99.7073 121.48 100.243 120.776 100.721L179.109 134.054H199.568C208.404 134.054 215.568 141.218 215.568 150.054V227.676C215.568 236.512 208.404 243.676 199.568 243.676H16C7.16347 243.676 0 236.512 0 227.676V150.054C0 141.218 7.16344 134.054 16 134.054H39.6878L99.9763 99.6035C99.7472 99.4092 99.5219 99.208 99.3007 98.9999C92.4932 92.5928 92.0354 81.9266 98.2689 74.9597L107.024 65.1745V62.0541H101.122C95.5733 62.0541 90.7482 58.25 89.4533 52.8546L80.3203 14.8005ZM109.154 103.573C109.35 103.595 109.546 103.614 109.742 103.63L162.985 134.054H55.8123L109.154 103.573ZM40.8287 142.054H177.968C177.999 142.055 178.03 142.055 178.06 142.055C178.08 142.055 178.099 142.054 178.118 142.054H199.568C203.986 142.054 207.568 145.636 207.568 150.054V227.676C207.568 232.094 203.986 235.676 199.568 235.676H16C11.5817 235.676 8 232.094 8 227.676V150.054C8 145.636 11.5817 142.054 16 142.054H40.6787C40.7286 142.055 40.7787 142.055 40.8287 142.054ZM91.989 8.00003C89.4023 8.00003 87.4958 10.4182 88.0994 12.9335L97.2324 50.9876C97.664 52.7861 99.2724 54.0541 101.122 54.0541H118.778C120.627 54.0541 122.236 52.7861 122.667 50.9876L131.8 12.9335C132.404 10.4182 130.498 8.00003 127.911 8.00003H91.989ZM126.199 196.47C126.199 200.135 125.777 203.392 124.933 206.239C124.089 209.061 122.876 211.434 121.294 213.358C119.712 215.31 117.774 216.786 115.48 217.788C113.187 218.79 110.563 219.291 107.61 219.291C104.683 219.291 102.06 218.803 99.7393 217.828C97.4189 216.826 95.4546 215.336 93.8462 213.358C92.2378 211.434 91.0117 209.061 90.168 206.239C89.3242 203.392 88.9023 200.135 88.9023 196.47V182.983C88.9023 179.318 89.3242 176.075 90.168 173.254C91.0117 170.406 92.2378 168.007 93.8462 166.056C95.4282 164.104 97.3662 162.628 99.6602 161.626C101.98 160.598 104.604 160.083 107.531 160.083C110.484 160.083 113.107 160.598 115.401 161.626C117.722 162.628 119.686 164.104 121.294 166.056C122.876 168.007 124.089 170.406 124.933 173.254C125.777 176.075 126.199 179.318 126.199 182.983V196.47ZM96.2588 195.007L118.684 177.802C118.473 175.904 118.091 174.229 117.537 172.779C117.01 171.303 116.285 170.077 115.362 169.101C114.465 168.099 113.358 167.348 112.04 166.847C110.748 166.346 109.245 166.095 107.531 166.095C105.791 166.095 104.248 166.372 102.903 166.926C101.585 167.453 100.464 168.231 99.5415 169.259C98.4341 170.551 97.6035 172.226 97.0498 174.282C96.5225 176.312 96.2588 178.672 96.2588 181.362V191.012V192.99V195.007ZM118.842 198.013V189.865V187.611V184.803L96.4565 201.928C96.6938 203.853 97.1157 205.554 97.7222 207.03C98.3286 208.48 99.1196 209.68 100.095 210.629C100.992 211.526 102.073 212.211 103.338 212.686C104.604 213.134 106.028 213.358 107.61 213.358C109.271 213.358 110.748 213.108 112.04 212.607C113.332 212.106 114.426 211.381 115.322 210.432C116.535 209.14 117.418 207.452 117.972 205.369C118.552 203.286 118.842 200.834 118.842 198.013ZM44.0122 189.628L46.8994 160.914H76.4438V168.033H53.0693L51.4478 183.379C52.5815 182.72 53.9395 182.14 55.5215 181.639C57.1035 181.138 58.936 180.887 61.019 180.887C63.6821 180.887 66.0684 181.349 68.1777 182.271C70.2871 183.194 72.0801 184.486 73.5566 186.147C75.0332 187.835 76.167 189.865 76.958 192.238C77.749 194.611 78.1445 197.248 78.1445 200.148C78.1445 202.891 77.7754 205.435 77.0371 207.782C76.2988 210.128 75.1914 212.146 73.7148 213.833C72.2119 215.547 70.3267 216.892 68.0591 217.867C65.7915 218.816 63.1284 219.291 60.0698 219.291C57.7231 219.291 55.5083 218.961 53.4253 218.302C51.3423 217.643 49.4966 216.654 47.8882 215.336C46.2534 214.018 44.9087 212.356 43.854 210.353C42.8257 208.349 42.1797 206.015 41.916 203.352H48.877C49.3252 206.622 50.5249 209.1 52.4761 210.788C54.4536 212.475 56.9849 213.319 60.0698 213.319C61.8101 213.319 63.3525 213.016 64.6973 212.409C66.042 211.776 67.1758 210.88 68.0986 209.72C68.9951 208.586 69.6675 207.215 70.1157 205.606C70.5903 203.998 70.8276 202.205 70.8276 200.228C70.8276 198.435 70.564 196.76 70.0366 195.205C69.5356 193.649 68.7974 192.291 67.8218 191.131C66.8462 189.997 65.6465 189.101 64.2227 188.441C62.7988 187.782 61.1641 187.453 59.3184 187.453C58.1055 187.453 57.0508 187.545 56.1543 187.729C55.2842 187.888 54.4932 188.125 53.7812 188.441C53.0693 188.758 52.397 189.14 51.7642 189.588C51.1577 190.037 50.5249 190.551 49.8657 191.131L44.0122 189.628ZM173.581 206.239C174.424 203.392 174.846 200.135 174.846 196.47V182.983C174.846 179.318 174.424 176.075 173.581 173.254C172.737 170.406 171.524 168.007 169.942 166.056C168.333 164.104 166.369 162.628 164.049 161.626C161.755 160.598 159.131 160.083 156.178 160.083C153.251 160.083 150.628 160.598 148.308 161.626C146.014 162.628 144.076 164.104 142.494 166.056C140.885 168.007 139.659 170.406 138.815 173.254C137.972 176.075 137.55 179.318 137.55 182.983V196.47C137.55 200.135 137.972 203.392 138.815 206.239C139.659 209.061 140.885 211.434 142.494 213.358C144.102 215.336 146.066 216.826 148.387 217.828C150.707 218.803 153.331 219.291 156.257 219.291C159.21 219.291 161.834 218.79 164.128 217.788C166.422 216.786 168.36 215.31 169.942 213.358C171.524 211.434 172.737 209.061 173.581 206.239ZM167.332 177.802L144.906 195.007V192.99V191.012V181.362C144.906 178.672 145.17 176.312 145.697 174.282C146.251 172.226 147.082 170.551 148.189 169.259C149.112 168.231 150.232 167.453 151.551 166.926C152.896 166.372 154.438 166.095 156.178 166.095C157.892 166.095 159.395 166.346 160.687 166.847C162.005 167.348 163.113 168.099 164.009 169.101C164.932 170.077 165.657 171.303 166.185 172.779C166.738 174.229 167.121 175.904 167.332 177.802ZM167.49 189.865V198.013C167.49 200.834 167.2 203.286 166.62 205.369C166.066 207.452 165.183 209.14 163.97 210.432C163.073 211.381 161.979 212.106 160.687 212.607C159.395 213.108 157.918 213.358 156.257 213.358C154.675 213.358 153.251 213.134 151.986 212.686C150.72 212.211 149.639 211.526 148.743 210.629C147.767 209.68 146.976 208.48 146.37 207.03C145.763 205.554 145.341 203.853 145.104 201.928L167.49 184.803V187.611V189.865Z" fill="#00CC66"/>
</svg>

<svg width="216" height="244" fill="none" xmlns="http://www.w3.org/2000/svg"><path fill-rule="evenodd" clip-rule="evenodd" d="M80.32 14.8C78.51 7.255 84.23 0 91.99 0h35.922c7.76 0 13.48 7.255 11.668 14.8l-9.132 38.055a12 12 0 0 1-11.669 9.2h-3.754v3.187c0 1.925-.71 3.782-1.993 5.217l-8.8 9.835a9.232 9.232 0 0 0 .553 12.88 9.193 9.193 0 0 0 3.365 2.023 3.991 3.991 0 0 1 1.249-.025 3.983 3.983 0 0 1 2.504.478 9.199 9.199 0 0 0 5.472-2.415l1.019-.94a8.344 8.344 0 0 0 2.685-6.133 4 4 0 0 1 8 0c0 4.562-1.906 8.917-5.259 12.011l-1.018.94a17.44 17.44 0 0 1-2.025 1.608l58.333 33.333h20.459c8.836 0 16 7.164 16 16v77.622c0 8.836-7.164 16-16 16H16c-8.837 0-16-7.164-16-16v-77.622c0-8.836 7.163-16 16-16h23.688l60.288-34.45c-.229-.195-.454-.396-.675-.604-6.808-6.407-7.266-17.073-1.032-24.04l8.755-9.785v-3.12h-5.902a12 12 0 0 1-11.669-9.2L80.32 14.8Zm28.834 88.773c.196.022.392.041.588.057l53.243 30.424H55.812l53.342-30.481Zm-68.325 38.481h137.139l.092.001.058-.001h21.45a8 8 0 0 1 8 8v77.622a8 8 0 0 1-8 8H16a8 8 0 0 1-8-8v-77.622a8 8 0 0 1 8-8H40.829ZM91.989 8a4 4 0 0 0-3.89 4.934l9.133 38.054a4 4 0 0 0 3.89 3.066h17.656a4 4 0 0 0 3.889-3.066l9.133-38.054A4 4 0 0 0 127.911 8H91.989Zm34.21 188.47c0 3.665-.422 6.922-1.266 9.769-.844 2.822-2.057 5.195-3.639 7.119a15.224 15.224 0 0 1-5.814 4.43c-2.293 1.002-4.917 1.503-7.87 1.503-2.927 0-5.55-.488-7.87-1.463a15.324 15.324 0 0 1-5.894-4.47c-1.608-1.924-2.834-4.297-3.678-7.119-.844-2.847-1.266-6.104-1.266-9.769v-13.487c0-3.665.422-6.908 1.266-9.729.844-2.848 2.07-5.247 3.678-7.198a15.224 15.224 0 0 1 5.814-4.43c2.32-1.028 4.944-1.543 7.871-1.543 2.953 0 5.576.515 7.87 1.543a15.476 15.476 0 0 1 5.893 4.43c1.582 1.951 2.795 4.35 3.639 7.198.844 2.821 1.266 6.064 1.266 9.729v13.487Zm-29.94-1.463 22.425-17.205c-.211-1.898-.593-3.573-1.147-5.023-.527-1.476-1.252-2.702-2.175-3.678-.897-1.002-2.004-1.753-3.322-2.254-1.292-.501-2.795-.752-4.509-.752-1.74 0-3.283.277-4.628.831a8.879 8.879 0 0 0-3.362 2.333c-1.107 1.292-1.938 2.967-2.491 5.023-.528 2.03-.791 4.39-.791 7.08v13.645Zm22.583 3.006V184.803l-22.385 17.125c.237 1.925.659 3.626 1.265 5.102.607 1.45 1.398 2.65 2.373 3.599.897.897 1.978 1.582 3.243 2.057 1.266.448 2.69.672 4.272.672 1.661 0 3.138-.25 4.43-.751 1.292-.501 2.386-1.226 3.282-2.175 1.213-1.292 2.096-2.98 2.65-5.063.58-2.083.87-4.535.87-7.356Zm-74.83-8.385 2.887-28.714h29.545v7.119H53.069l-1.621 15.346c1.133-.659 2.492-1.239 4.074-1.74 1.581-.501 3.414-.752 5.497-.752 2.663 0 5.05.462 7.159 1.384 2.11.923 3.902 2.215 5.379 3.876 1.476 1.688 2.61 3.718 3.401 6.091.791 2.373 1.186 5.01 1.186 7.91 0 2.743-.369 5.287-1.107 7.634-.738 2.346-1.846 4.364-3.322 6.051-1.503 1.714-3.388 3.059-5.656 4.034-2.267.949-4.93 1.424-7.99 1.424-2.346 0-4.56-.33-6.644-.989-2.083-.659-3.928-1.648-5.537-2.966-1.635-1.318-2.98-2.98-4.034-4.983-1.028-2.004-1.674-4.338-1.938-7.001h6.961c.448 3.27 1.648 5.748 3.6 7.436 1.977 1.687 4.508 2.531 7.593 2.531 1.74 0 3.282-.303 4.627-.91a9.41 9.41 0 0 0 3.402-2.689c.896-1.134 1.569-2.505 2.017-4.114.474-1.608.712-3.401.712-5.378 0-1.793-.264-3.468-.791-5.023-.501-1.556-1.24-2.914-2.215-4.074-.976-1.134-2.175-2.03-3.6-2.69-1.423-.659-3.058-.988-4.904-.988-1.212 0-2.267.092-3.164.276-.87.159-1.66.396-2.373.712a11.76 11.76 0 0 0-2.017 1.147 29.13 29.13 0 0 0-1.898 1.543l-5.854-1.503Zm129.569 16.611c.843-2.847 1.265-6.104 1.265-9.769v-13.487c0-3.665-.422-6.908-1.265-9.729-.844-2.848-2.057-5.247-3.639-7.198a15.49 15.49 0 0 0-5.893-4.43c-2.294-1.028-4.918-1.543-7.871-1.543-2.927 0-5.55.515-7.87 1.543a15.224 15.224 0 0 0-5.814 4.43c-1.609 1.951-2.835 4.35-3.679 7.198-.843 2.821-1.265 6.064-1.265 9.729v13.487c0 3.665.422 6.922 1.265 9.769.844 2.822 2.07 5.195 3.679 7.119a15.316 15.316 0 0 0 5.893 4.47c2.32.975 4.944 1.463 7.87 1.463 2.953 0 5.577-.501 7.871-1.503a15.224 15.224 0 0 0 5.814-4.43c1.582-1.924 2.795-4.297 3.639-7.119Zm-6.249-28.437-22.426 17.205v-13.645c0-2.69.264-5.05.791-7.08.554-2.056 1.385-3.731 2.492-5.023a8.877 8.877 0 0 1 3.362-2.333c1.345-.554 2.887-.831 4.627-.831 1.714 0 3.217.251 4.509.752 1.318.501 2.426 1.252 3.322 2.254.923.976 1.648 2.202 2.176 3.678.553 1.45.936 3.125 1.147 5.023Zm.158 12.063v8.148c0 2.821-.29 5.273-.87 7.356-.554 2.083-1.437 3.771-2.65 5.063-.897.949-1.991 1.674-3.283 2.175-1.292.501-2.769.751-4.43.751-1.582 0-3.006-.224-4.271-.672-1.266-.475-2.347-1.16-3.243-2.057-.976-.949-1.767-2.149-2.373-3.599-.607-1.476-1.029-3.177-1.266-5.102l22.386-17.125V189.865Z" fill="#0C6"/></svg>
